map-marker-radius-outline.svg

<svg fill="currentColor" viewBox="0 0 24 24"><path d="M12 4c2.2 0 4 1.8 4 4 0 2.1-2.1 5.5-4 7.9-1.9-2.5-4-5.8-4-7.9 0-2.2 1.8-4 4-4m0-2C8.7 2 6 4.7 6 8c0 4.5 6 11 6 11s6-6.6 6-11c0-3.3-2.7-6-6-6m0 4c-1.1 0-2 .9-2 2s.9 2 2 2 2-.9 2-2-.9-2-2-2m8 13c0 2.2-3.6 4-8 4s-8-1.8-8-4c0-1.3 1.2-2.4 3.1-3.2l.6.9c-1 .5-1.7 1.1-1.7 1.8 0 1.4 2.7 2.5 6 2.5s6-1.1 6-2.5c0-.7-.7-1.3-1.8-1.8l.6-.9c2 .8 3.2 1.9 3.2 3.2"/></svg>

<svg  viewBox="0 0 24 24" fill="currentColor"><path  d="M12 4C14.2 4 16 5.8 16 8C16 10.1 13.9 13.5 12 15.9C10.1 13.4 8 10.1 8 8C8 5.8 9.8 4 12 4M12 2C8.7 2 6 4.7 6 8C6 12.5 12 19 12 19S18 12.4 18 8C18 4.7 15.3 2 12 2M12 6C10.9 6 10 6.9 10 8S10.9 10 12 10 14 9.1 14 8 13.1 6 12 6M20 19C20 21.2 16.4 23 12 23S4 21.2 4 19C4 17.7 5.2 16.6 7.1 15.8L7.7 16.7C6.7 17.2 6 17.8 6 18.5C6 19.9 8.7 21 12 21S18 19.9 18 18.5C18 17.8 17.3 17.2 16.2 16.7L16.8 15.8C18.8 16.6 20 17.7 20 19Z"/></svg>
